!!!!SEGMENT: Snf0114-Deus_in_adiutorium_meum.krn
!!!id: Snf0114
!!!AGN: Motet
!!!SCT: Edwards, Gasch, Tröster (2021)
!!!voices: 4
!!!COM: Ludwig Senfl
!!!OTL: Deus in adiutorium meum
**kern	**text	**kern	**text	**kern	**text	**kern	**text
*part4	*part4	*part3	*part3	*part2	*part2	*part1	*part1
*staff4	*staff4	*staff3	*staff3	*staff2	*staff2	*staff1	*staff1
*I"Bassus	*	*I"Tenor	*	*I"Altus	*	*I"Superius	*
*I'B	*	*I'T	*	*I'A	*	*I'S	*
*clefF4	*	*clefGv2	*	*clefGv2	*	*clefG2	*
*	*	*	*	*	*	*	*
*k[]	*	*k[]	*	*k[]	*	*k[]	*
*	*	*	*	*	*	*	*
*M2/1	*	*M2/1	*	*M2/1	*	*M2/1	*
*met(C|)	*	*met(C|)	*	*met(C|)	*	*met(C|)	*
!!section: Prima pars: Deus in adiutorium meum
!!!OMD: Prima pars: Deus in adiutorium meum
0r	.	1c	De-	0r	.	0r	.
.	.	2c	-us,	.	.	.	.
.	.	2c	in	.	.	.	.
=1	=1	=1	=1	=1	=1	=1	=1
0r	.	2c	ad-	0r	.	0r	.
.	.	2c	-iu-	.	.	.	.
.	.	1d	-to-	.	.	.	.
=2	=2	=2	=2	=2	=2	=2	=2
0r	.	2c	-ri-	0r	.	1cc	De-
.	.	2c	-um	.	.	.	.
.	.	2c	me-	.	.	2cc	-us,
.	.	2c	-um	.	.	2cc	in
=3	=3	=3	=3	=3	=3	=3	=3
0r	.	1c	in-	0r	.	2cc	ad-
.	.	.	.	.	.	2cc	-iu-
.	.	1B	-ten-	.	.	1dd	-to-
=4	=4	=4	=4	=4	=4	=4	=4
1F	De-	1c	-de,	0r	.	2cc	-ri-
.	.	.	.	.	.	2cc	-um
2F	-us,	2r	.	.	.	2cc	me-
2F	in	2f	in-	.	.	2cc	-um
=5	=5	=5	=5	=5	=5	=5	=5
2F	ad-	2c	-ten-	0r	.	1cc	in-
2F	-iu-	2f	.	.	.	.	.
1G	-to-	2d	-de,	.	.	1b	-ten-
.	.	2e	in-	.	.	.	.
=6	=6	=6	=6	=6	=6	=6	=6
2F	-ri-	2.A	-ten-	1f	De-	1cc	-de,
2F	-um	.	.	.	.	.	.
.	.	4B	.	.	.	.	.
2F	me-	2c	.	2f	-us,	2r	.
2F	-um	2A	.	2f	in	2cc	in-
=7	=7	=7	=7	=7	=7	=7	=7
1F	in-	2.c	.	2f	ad-	2a	-ten-
.	.	.	.	2f	-iu-	1cc	.
.	.	4d	.	.	.	.	.
1E	-ten-	1e	.	1g	-to-	.	.
.	.	.	.	.	.	2b	.
=8	=8	=8	=8	=8	=8	=8	=8
[0F	-de;	2c	.	2f	-ri-	2.a	.
.	.	2.A	.	2f	-um	.	.
.	.	.	.	.	.	4b	.
.	.	.	.	2f	me-	2cc	.
.	.	4B	.	.	.	.	.
.	.	2c	.	2f	-um	2a	.
=9	=9	=9	=9	=9	=9	=9	=9
1F]	.	2.A	.	1f	in-	2.cc	.
.	.	4B	.	.	.	4dd	.
1r	.	1c	-de;	1e	-ten-	1ee	.
=10	=10	=10	=10	=10	=10	=10	=10
1F	Do-	2r	.	1f	-de;	1a	-de;
.	.	1c	Do-	.	.	.	.
2F	-mi-	.	.	2r	.	2r	.
[2F	-ne,	2c	-mi-	[2f	Do-	[2a	Do-
=11	=11	=11	=11	=11	=11	=11	=11
2F]	.	1c	-ne,	2f]	.	2a]	.
2F	ad	.	.	2f	-mi-	2a	-mi-
1A	ad-	2c	ad	2e	-ne,	1cc	-ne,
.	.	[2e	ad-	2c	ad	.	.
=12	=12	=12	=12	=12	=12	=12	=12
2G	-iu-	2e]	.	1g	ad-	1b	ad
2G	-van-	2d	-iu-	.	.	.	.
1F	-dum	2d	-van-	2a	-iu-	1a	ad-
.	.	[2c	-dum	2f	-van-	.	.
=13	=13	=13	=13	=13	=13	=13	=13
1A	me	2c]	.	2e	-dum	2cc	-iu-
.	.	1e	me	2c	.	2cc	-van-
1G	fe-	.	.	1g	me	2b	-dum
.	.	2d	fe-	.	.	[2b	me
=14	=14	=14	=14	=14	=14	=14	=14
2E	-sti-	2e	-sti-	2G	fe-	2b]	.
2F	.	1c	.	2A	-sti-	2a	.
1D	.	.	.	2F	.	1dd	fe-
.	.	2B	.	2f	.	.	.
=15	=15	=15	=15	=15	=15	=15	=15
1C	-na.	1c	-na.	2e	.	1.ee	.
.	.	.	.	2a	.	.	.
1r	.	1r	.	1g	.	.	.
.	.	.	.	.	.	2dd	-sti-
=16	=16	=16	=16	=16	=16	=16	=16
0r	.	0r	.	2e	.	2ee	.
.	.	.	.	2f	.	1cc	.
.	.	.	.	1d	.	.	.
.	.	.	.	.	.	2b	.
=17	=17	=17	=17	=17	=17	=17	=17
2r	.	1r	.	1c	-na.	0cc	-na.
1F	Con-	.	.	.	.	.	.
.	.	1c	Con-	1r	.	.	.
2E	-fun-	.	.	.	.	.	.
=18	=18	=18	=18	=18	=18	=18	=18
1G	-dan-	1B	-fun-	1r	.	0r	.
1D	-tur	1d	-dan-	2r	.	.	.
.	.	.	.	[2f	Con-	.	.
=19	=19	=19	=19	=19	=19	=19	=19
1r	.	1A	-tur	2f]	.	1cc	Con-
.	.	.	.	2e	-fun-	.	.
[1G	et	1r	.	1g	-dan-	1b	-fun-
=20	=20	=20	=20	=20	=20	=20	=20
1G]	.	0d	et	1d	-tur	1dd	-dan-
1F	re-	.	.	1r	.	1a	-tur
=21	=21	=21	=21	=21	=21	=21	=21
1.A	-ve-	1c	re-	0r	.	0r	.
.	.	[1e	-ve-	.	.	.	.
2A	-re-	.	.	.	.	.	.
=22	=22	=22	=22	=22	=22	=22	=22
0G	-an-	2e]	.	0g	et	1r	.
.	.	2e	-re-	.	.	.	.
.	.	[1d	-an-	.	.	[1dd	et
=23	=23	=23	=23	=23	=23	=23	=23
1D	-tur	1d]	.	1f	re-	1dd]	.
1r	.	1A	-tur	[1a	-ve-	1cc	re-
=24	=24	=24	=24	=24	=24	=24	=24
0r	.	0r	.	2a]	.	1.ee	-ve-
.	.	.	.	2a	-re-	.	.
.	.	.	.	[1g	-an-	.	.
.	.	.	.	.	.	2ee	-re-
=25	=25	=25	=25	=25	=25	=25	=25
1r	.	0r	.	1g]	.	0dd	-an-
1G	qui	.	.	1d	-tur	.	.
=26	=26	=26	=26	=26	=26	=26	=26
2F	quae-	1d	qui	1r	.	1a	-tur
2D	-runt	.	.	.	.	.	.
2F	a-	2c	quae-	1f	qui	1a	qui
2F	-ni-	2A	-runt	.	.	.	.
=27	=27	=27	=27	=27	=27	=27	=27
[0C	-mam	2c	a-	2e	quae-	2g	quae-
.	.	2c	-ni-	2e	-runt	2g	-runt
.	.	1G	-mam	2.e	a-	2.g	a-
.	.	.	.	4c	-ni-	4e	-mam
=28	=28	=28	=28	=28	=28	=28	=28
0C]	.	2r	.	2c	-mam	2.e	.
.	.	2.c	me-	2.e	me-	.	.
.	.	.	.	.	.	4f	.
.	.	.	.	.	.	2g	.
.	.	4B	.	4d	.	.	.
.	.	4A	.	4c	.	[2a	me-
.	.	4G	.	4B	.	.	.
=29	=29	=29	=29	=29	=29	=29	=29
1D	me-	1F	.	2.A	.	4a]	.
.	.	.	.	.	.	4g	.
.	.	.	.	.	.	1f	.
.	.	.	.	4B	.	.	.
1C	-am.	1G	.	1c	.	.	.
.	.	.	.	.	.	2e	.
=30	=30	=30	=30	=30	=30	=30	=30
1r	.	0F	-am.	[0c	-am.	0f	-am.
2r	.	.	.	.	.	.	.
[2F	A-	.	.	.	.	.	.
=31	=31	=31	=31	=31	=31	=31	=31
2F]	.	2r	.	1c]	.	0r	.
2E	-ver-	1c	A-	.	.	.	.
2F	-tan-	.	.	1r	.	.	.
2G	-tur	2B	-ver-	.	.	.	.
=32	=32	=32	=32	=32	=32	=32	=32
2A	re-	2c	-tan-	0r	.	0r	.
2G	-tror-	2d	-tur	.	.	.	.
2C	.	2e	re-	.	.	.	.
[2G	.	2d	-tror-	.	.	.	.
=33	=33	=33	=33	=33	=33	=33	=33
2G]	.	2G	.	1r	.	0r	.
4F	.	1c	.	.	.	.	.
4E	.	.	.	.	.	.	.
1D	.	.	.	2r	.	.	.
.	.	2B	.	[2f	A-	.	.
=34	=34	=34	=34	=34	=34	=34	=34
1C	-sum	1c	-sum	2f]	.	2r	.
.	.	.	.	2e	-ver-	1cc	A-
1r	.	1r	.	2f	-tan-	.	.
.	.	.	.	2g	-tur	2b	-ver-
=35	=35	=35	=35	=35	=35	=35	=35
1r	.	0r	.	2a	re-	2cc	-tan-
.	.	.	.	2g	-tror-	2dd	-tur
2r	.	.	.	2c	.	2ee	re-
2G	et	.	.	[2g	.	2dd	-tror-
=36	=36	=36	=36	=36	=36	=36	=36
2E	e-	1r	.	2g]	.	2g	.
2F	-ru-	.	.	4f	.	1cc	.
.	.	.	.	4e	.	.	.
1G	-be-	2r	.	1d	.	.	.
.	.	2g	et	.	.	2b	.
=37	=37	=37	=37	=37	=37	=37	=37
1C	-scant,	2.e	e-	0c	-sum	[0cc	-sum
.	.	4f	-ru-	.	.	.	.
2r	.	1g	-be-	.	.	.	.
2c	et	.	.	.	.	.	.
=38	=38	=38	=38	=38	=38	=38	=38
2.A	e-	1c	-scant,	2r	.	0cc]	.
.	.	.	.	2c	et	.	.
4B	-ru-	.	.	.	.	.	.
1c	-be-	2r	.	2.A	e-	.	.
.	.	2c	et	.	.	.	.
.	.	.	.	4B	-ru-	.	.
=39	=39	=39	=39	=39	=39	=39	=39
1F	-scant	2.A	e-	1c	-be-	2r	.
.	.	.	.	.	.	2cc	et
.	.	4B	-ru-	.	.	.	.
1r	.	1c	-be-	1F	-scant	2.a	e-
.	.	.	.	.	.	4b	-ru-
=40	=40	=40	=40	=40	=40	=40	=40
1r	.	1F	-scant	0r	.	1cc	-be-
1F	qui	2r	.	.	.	1f	-scant
.	.	2c	qui	.	.	.	.
=41	=41	=41	=41	=41	=41	=41	=41
1F	vo-	1c	vo-	2r	.	2r	.
.	.	.	.	2f	qui	2a	qui
1F	-lunt	1c	-lunt	2f	vo-	2a	vo-
.	.	.	.	2f	-lunt	2a	-lunt
=42	=42	=42	=42	=42	=42	=42	=42
1A	mi-	1c	mi-	1e	mi-	1a	mi-
1D	-hi	1d	-hi	1f	-hi	1a	-hi
=43	=43	=43	=43	=43	=43	=43	=43
1.G	ma-	1.B	ma-	1.d	ma-	1.g	ma-
2C	.	2G	.	2c	.	2e	.
=44	=44	=44	=44	=44	=44	=44	=44
[0C	-la.	0G	-la,	[0c	-la.	[0e	-la.
=45	=45	=45	=45	=45	=45	=45	=45
0C]	.	1r	.	1c]	.	0e]	.
.	.	[1c	ma-	1r	.	.	.
=46	=46	=46	=46	=46	=46	=46	=46
1r	.	2c]	.	1c	A-	0r	.
.	.	2A	.	.	.	.	.
1F	A-	1A	-la.	1d	-ver-	.	.
=47	=47	=47	=47	=47	=47	=47	=47
1G	-ver-	0r	.	1e	-tan-	0r	.
1A	-tan-	.	.	1c	-tur	.	.
=48	=48	=48	=48	=48	=48	=48	=48
1F	-tur	0r	.	4d	sta-	0r	.
.	.	.	.	4c	.	.	.
.	.	.	.	1f	.	.	.
1G	sta-	.	.	.	.	.	.
.	.	.	.	2e	.	.	.
=49	=49	=49	=49	=49	=49	=49	=49
1F	-tim,	1c	A-	1f	-tim,	1r	.
1r	.	1d	-ver-	1r	.	1f	A-
=50	=50	=50	=50	=50	=50	=50	=50
0r	.	1e	-tan-	0r	.	1g	-ver-
.	.	1c	-tur	.	.	1a	-tan-
=51	=51	=51	=51	=51	=51	=51	=51
1r	.	1d	sta-	2r	.	1f	-tur
.	.	.	.	1f	a-	.	.
1C	a-	1c	-tim,	.	.	1g	sta-
.	.	.	.	2e	-ver-	.	.
=52	=52	=52	=52	=52	=52	=52	=52
1D	-ver-	1F	a-	1d	-tan-	2f	-tim,
.	.	.	.	.	.	2a	.
1E	-tan-	1G	-ver-	2B	-tur	2g	sta-
.	.	.	.	[2e	sta-	[2cc	.
=53	=53	=53	=53	=53	=53	=53	=53
1C	-tur	1A	-tan-	4e]	.	4cc]	.
.	.	.	.	4d	.	4b	.
.	.	.	.	4c	.	2.a	.
.	.	.	.	4B	.	.	.
1D	sta-	1F	-tur	2.A	.	.	.
.	.	.	.	.	.	4g	.
.	.	.	.	.	.	[2f	.
.	.	.	.	4B	.	.	.
=54	=54	=54	=54	=54	=54	=54	=54
1C	-tim	1G	sta-	0c	.	2f]	.
.	.	.	.	.	.	2e	.
1r	.	1F	-tim	.	.	[1f	-tim
=55	=55	=55	=55	=55	=55	=55	=55
1F	e-	1r	.	1c	-tim	1f]	.
2E	-ru-	1c	e-	1r	.	1r	.
2E	-be-	.	.	.	.	.	.
=56	=56	=56	=56	=56	=56	=56	=56
1.G	-scen-	2B	-ru-	0r	.	0r	.
.	.	2B	-be-	.	.	.	.
.	.	[1d	-scen-	.	.	.	.
4F	.	.	.	.	.	.	.
4E	.	.	.	.	.	.	.
=57	=57	=57	=57	=57	=57	=57	=57
0D	.	2d]	.	1r	.	0r	.
.	.	4c	.	.	.	.	.
.	.	4B	.	.	.	.	.
.	.	[1A	.	1f	e-	.	.
=58	=58	=58	=58	=58	=58	=58	=58
1C	-tes	1A]	.	2e	-ru-	1cc	e-
.	.	.	.	2e	-be-	.	.
1r	.	1G	-tes	[1g	-scen-	2b	-ru-
.	.	.	.	.	.	2b	-be-
=59	=59	=59	=59	=59	=59	=59	=59
1r	.	0r	.	2g]	.	1.dd	-scen-
.	.	.	.	4f	.	.	.
.	.	.	.	4e	.	.	.
1D	qui	.	.	[1d	.	.	.
.	.	.	.	.	.	4cc	.
.	.	.	.	.	.	4b	.
=60	=60	=60	=60	=60	=60	=60	=60
2D	di-	1A	qui	1d]	.	0a	.
2D	-cunt	.	.	.	.	.	.
1F	mi-	2A	di-	1c	-tes	.	.
.	.	2A	-cunt	.	.	.	.
=61	=61	=61	=61	=61	=61	=61	=61
1C	-hi,	1c	mi-	1r	.	1g	-tes
1r	.	1G	-hi,	1d	qui	1r	.
=62	=62	=62	=62	=62	=62	=62	=62
1D	qui	1r	.	2d	di-	1r	.
.	.	.	.	2d	-cunt	.	.
2D	di-	2r	.	1f	mi-	1a	qui
2D	-cunt	[2A	qui	.	.	.	.
=63	=63	=63	=63	=63	=63	=63	=63
1F	mi-	2A]	.	2.c	-hi,	2a	di-
.	.	2A	di-	.	.	2a	-cunt
.	.	.	.	4d	.	.	.
1C	-hi,	2A	-cunt	1e	.	1cc	mi-
.	.	[2c	mi-	.	.	.	.
=64	=64	=64	=64	=64	=64	=64	=64
0r	.	2c]	.	1r	.	0g	-hi,
.	.	2G	-hi,	.	.	.	.
.	.	[1c	‘Eu-	[1e	‘Eu-	.	.
=65	=65	=65	=65	=65	=65	=65	=65
1r	.	1c]	.	1e]	.	0cc	‘Eu-
[1F	‘Eu-	[1A	-ge,	[1c	-ge,	.	.
=66	=66	=66	=66	=66	=66	=66	=66
1F]	.	1A]	.	1c]	.	0a	-ge,
[1D	-ge,	[1d	eu-	[1f	eu-	.	.
=67	=67	=67	=67	=67	=67	=67	=67
1D]	.	1d]	.	1f]	.	0dd	eu-
[1G	eu-	[1B	-ge,	[1d	-ge,	.	.
=68	=68	=68	=68	=68	=68	=68	=68
1G]	.	1B]	.	1d]	.	0b	-ge,
[1E	-ge,	[1e	eu-	[1g	eu-	.	.
=69	=69	=69	=69	=69	=69	=69	=69
1E]	.	1e]	.	1g]	.	0ee	eu-
[1A	eu-	[1c	-ge,	[1e	-ge,	.	.
=70	=70	=70	=70	=70	=70	=70	=70
1A]	.	1c]	.	1e]	.	1cc	-ge,
[1F	-ge,	[1f	eu-	[1a	eu-	[1cc	eu-
=71	=71	=71	=71	=71	=71	=71	=71
1F]	.	1f]	.	1a]	.	1cc]	.
[1F	eu-	[1c	-ge,	[1f	-ge,	[1a	-ge,
=72	=72	=72	=72	=72	=72	=72	=72
1F]	.	1c]	.	1f]	.	1a]	.
1C	.	[1c	eu-	[1e	eu-	[1g	eu-
=73	=73	=73	=73	=73	=73	=73	=73
[0Cl	-ge.’	1c]	.	1e]	.	1g]	.
.	.	1G	.	1c	.	1e	.
=74	=74	=74	=74	=74	=74	=74	=74
00C]	.	00G	-ge.’	00c	-ge.’	00e	-ge.’
=75||	=75||	=75||	=75||	=75||	=75||	=75||	=75||
*M2/1	*	*M2/1	*	*M2/1	*	*M2/1	*
*met(C|)	*	*met(C|)	*	*met(C|)	*	*met(C|)	*
!!section: Secunda pars: Exultent et laetentur
!!!OMD: Secunda pars: Exultent et laetentur
0r	.	1r	.	0r	.	1f	E-
.	.	1F	E-	.	.	1a	-xul-
=76	=76	=76	=76	=76	=76	=76	=76
1F	E-	1A	-xul-	1r	.	[0cc	-tent
1A	-xul-	1c	-tent,	1F	E-	.	.
=77	=77	=77	=77	=77	=77	=77	=77
[0c	-tent	2r	.	1A	-xul-	0cc_	.
.	.	2c	e-	.	.	.	.
.	.	1e	-xul-	2c	-tent,	.	.
.	.	.	.	2c	e-	.	.
=78	=78	=78	=78	=78	=78	=78	=78
0c]	.	0g	-tent	1e	-xul-	0cc]	.
.	.	.	.	2g	-tent,	.	.
.	.	.	.	2c	e-	.	.
=79	=79	=79	=79	=79	=79	=79	=79
0r	.	1c	et	1e	-xul-	0r	.
.	.	1G	lae-	[1g	-tent	.	.
=80	=80	=80	=80	=80	=80	=80	=80
0r	.	2.c	-ten-	1g]	.	1cc	et
.	.	4d	.	.	.	.	.
.	.	1e	.	1r	.	1g	lae-
=81	=81	=81	=81	=81	=81	=81	=81
1F	et	[0c	-tur	0r	.	2.cc	-ten-
.	.	.	.	.	.	4dd	.
1C	lae-	.	.	.	.	1ee	.
=82	=82	=82	=82	=82	=82	=82	=82
2.F	-ten-	1c]	.	1f	et	[0cc	-tur
4G	.	.	.	.	.	.	.
1A	.	1r	.	1c	lae-	.	.
=83	=83	=83	=83	=83	=83	=83	=83
[0F	-tur	0r	.	2.f	-ten-	0cc]	.
.	.	.	.	4g	.	.	.
.	.	.	.	1a	.	.	.
=84	=84	=84	=84	=84	=84	=84	=84
1F]	.	0r	.	2.f	-tur	1r	.
.	.	.	.	4e	.	.	.
1A	in	.	.	4c	.	1cc	in
.	.	.	.	4d	.	.	.
.	.	.	.	4e	.	.	.
.	.	.	.	4f	.	.	.
=85	=85	=85	=85	=85	=85	=85	=85
1G	te	1e	in	0g	.	1b	te
1G	o-	1d	te	.	.	1b	o-
=86	=86	=86	=86	=86	=86	=86	=86
0F	-mnes	1d	o-	1r	.	1a	-mnes,
.	.	[1c	-mnes	1a	in	1r	.
=87	=87	=87	=87	=87	=87	=87	=87
0r	.	1c]	.	1g	te	1ee	in
.	.	1r	.	1g	o-	1dd	te
=88	=88	=88	=88	=88	=88	=88	=88
1r	.	0r	.	1f	-mnes	1dd	o-
1A	qui	.	.	1r	.	2cc	-mnes
.	.	.	.	.	.	2cc	qui
=89	=89	=89	=89	=89	=89	=89	=89
1G	quae-	1e	qui	0r	.	1b	quae-
1G	-runt	1d	quae-	.	.	1b	-runt
=90	=90	=90	=90	=90	=90	=90	=90
0F	te,	1d	-runt	1r	.	1a	te,
.	.	[1c	te,	1a	qui	1r	.
=91	=91	=91	=91	=91	=91	=91	=91
0r	.	1c]	.	1g	quae-	1ee	qui
.	.	1r	.	1g	-runt	1dd	quae-
=92	=92	=92	=92	=92	=92	=92	=92
1r	.	0r	.	2f	te,	1dd	-runt
.	.	.	.	2f	et	.	.
1A	et	.	.	2e	di-	2cc	te,
.	.	.	.	2c	-cant	2cc	et
=93	=93	=93	=93	=93	=93	=93	=93
2G	di-	1e	et	2g	sem-	2b	di-
2G	-cant	.	.	4G	-per,	2b	-cant
.	.	.	.	4A	.	.	.
1G	sem-	2d	di-	4B	.	1b	sem-
.	.	.	.	4c	.	.	.
.	.	2d	-cant	4d	.	.	.
.	.	.	.	4e	.	.	.
=94	=94	=94	=94	=94	=94	=94	=94
[0F	-per,	1d	sem-	1f	.	[0a	-per,
.	.	[1c	-per,	2r	.	.	.
.	.	.	.	2f	‘Ma-	.	.
=95	=95	=95	=95	=95	=95	=95	=95
1F]	.	0c]	.	1f	-gni-	1a]	.
1r	.	.	.	1e	-fi-	2r	.
.	.	.	.	.	.	2g	‘Ma-
=96	=96	=96	=96	=96	=96	=96	=96
0r	.	1r	.	1d	-ce-	2a	-gni-
.	.	.	.	.	.	2b	-fi-
.	.	2r	.	1c	-tur	1cc	-ce-
.	.	2c	‘Ma-	.	.	.	.
=97	=97	=97	=97	=97	=97	=97	=97
2r	.	2d	-gni-	1r	.	1b	-tur,
2G	‘Ma-	2e	-fi-	.	.	.	.
2A	-gni-	1f	-ce-	2r	.	1r	.
2B	-fi-	.	.	2d	Do-	.	.
=98	=98	=98	=98	=98	=98	=98	=98
1c	-ce-	2e	-tur	2.g	.	1r	.
.	.	2.g	Do-	.	.	.	.
.	.	.	.	4f	.	.	.
1C	-tur	.	.	4e	.	2r	.
.	.	4f	.	4d	.	.	.
.	.	2e	.	2c	.	2cc	ma-
=99	=99	=99	=99	=99	=99	=99	=99
2G	Do-	2d	.	2B	.	2dd	-gni-
2E	.	1c	.	1G	.	2ee	-fi-
1D	-mi-	.	.	.	.	1ff	-ce-
.	.	2B	.	2F	-mi-	.	.
=100	=100	=100	=100	=100	=100	=100	=100
0C	-nus,	2.c	.	1G	-nus,	2ee	-tur
.	.	.	.	.	.	2.gg	Do-
.	.	4d	.	.	.	.	.
.	.	4e	.	2r	.	.	.
.	.	4f	.	.	.	4ff	.
.	.	4g	.	2c	ma-	2ee	.
.	.	4e	.	.	.	.	.
=101	=101	=101	=101	=101	=101	=101	=101
0r	.	2f	.	2d	-gni-	2dd	.
.	.	2e	.	2e	-fi-	1cc	.
.	.	1d	-mi-	1f	-ce-	.	.
.	.	.	.	.	.	2b	-mi-
=102	=102	=102	=102	=102	=102	=102	=102
2.C	Do-	1c	-nus,	2e	-tur	1cc	-nus,
.	.	.	.	2.g	Do-	.	.
4D	.	.	.	.	.	.	.
4E	.	1r	.	.	.	1r	.
4F	.	.	.	4f	.	.	.
4G	.	.	.	2e	.	.	.
4E	.	.	.	.	.	.	.
=103	=103	=103	=103	=103	=103	=103	=103
2F	.	1r	.	2d	.	2r	.
2E	.	.	.	1c	.	2g	Do-
1D	-mi-	1F	Do-	.	.	2a	.
.	.	.	.	2B	-mi-	4g	.
.	.	.	.	.	.	4f	.
=104	=104	=104	=104	=104	=104	=104	=104
0C	-nus!’	2G	.	[0c	-nus!’	2e	.
.	.	2A	.	.	.	1f	.
.	.	1G	-mi-	.	.	.	.
.	.	.	.	.	.	2e	-mi-
=105	=105	=105	=105	=105	=105	=105	=105
1r	.	1F	-nus!’	0c]	.	0f	-nus!’
1F	qui	1r	.	.	.	.	.
=106	=106	=106	=106	=106	=106	=106	=106
2E	di-	1c	qui	0r	.	0r	.
2C	-li-	.	.	.	.	.	.
2G	-gunt	2B	di-	.	.	.	.
2E	sa-	2G	-li-	.	.	.	.
=107	=107	=107	=107	=107	=107	=107	=107
2F	-lu-	2d	-gunt	0r	.	0r	.
2G	-ta-	2B	sa-	.	.	.	.
2C	-re	2c	-lu-	.	.	.	.
[2G	tu-	2d	-ta-	.	.	.	.
=108	=108	=108	=108	=108	=108	=108	=108
4G]	.	2G	-re	0r	.	0r	.
4E	.	.	.	.	.	.	.
2F	.	2.d	tu-	.	.	.	.
2G	.	.	.	.	.	.	.
.	.	4B	.	.	.	.	.
2E	.	2c	.	.	.	.	.
=109	=109	=109	=109	=109	=109	=109	=109
2F	.	2d	.	1f	qui	1r	.
2D	.	2B	.	.	.	.	.
1C	-um,	2c	.	2e	di-	1cc	qui
.	.	2A	.	2c	-li-	.	.
=110	=110	=110	=110	=110	=110	=110	=110
0r	.	1G	-um,	2g	-gunt	2b	di-
.	.	.	.	2e	sa-	2g	-li-
.	.	1r	.	2f	-lu-	2dd	-gunt
.	.	.	.	2g	-ta-	2b	sa-
=111	=111	=111	=111	=111	=111	=111	=111
0r	.	0r	.	2c	-re	2cc	-lu-
.	.	.	.	2.g	tu-	2dd	-ta-
.	.	.	.	.	.	2g	-re
.	.	.	.	4e	.	.	.
.	.	.	.	2f	.	[2dd	tu-
=112	=112	=112	=112	=112	=112	=112	=112
1r	.	1r	.	2g	.	4dd]	.
.	.	.	.	.	.	4b	.
.	.	.	.	2e	.	2cc	.
2r	.	2r	.	2f	.	2dd	.
2G	tu-	2g	tu-	2d	.	2b	.
=113	=113	=113	=113	=113	=113	=113	=113
2A	.	2e	.	[0c	-um.	2cc	.
2F	.	1f	.	.	.	2a	.
1c	.	.	.	.	.	1g	.
.	.	2e	.	.	.	.	.
=114	=114	=114	=114	=114	=114	=114	=114
*M3/1	*	*M3/1	*	*M3/1	*	*M3/1	*
*met(3)	*	*met(3)	*	*met(3)	*	*met(3)	*
0F	-um.	0.f	-um.	0c]	.	0.a	-um.
1r	.	.	.	1r	.	.	.
=115	=115	=115	=115	=115	=115	=115	=115
1F	E-	1%3r	.	1f	E-	1%3r	.
1G	-go	.	.	1d	-go	.	.
1G	ve-	.	.	1e	ve-	.	.
=116	=116	=116	=116	=116	=116	=116	=116
0F	-ro	1c	E-	0A	-ro	1cc	E-
.	.	1d	-go	.	.	1a	-go
1r	.	1d	ve-	1r	.	1b	ve-
=117	=117	=117	=117	=117	=117	=117	=117
1%3r	.	0.c	-ro	1r	.	0e	-ro
.	.	.	.	1r	.	.	.
.	.	.	.	1e	e-	1r	.
=118	=118	=118	=118	=118	=118	=118	=118
1F	e-	1%3r	.	1f	-ge-	1r	.
0G	-ge-	.	.	1d	.	1r	.
.	.	.	.	1e	.	1b	e-
=119	=119	=119	=119	=119	=119	=119	=119
0F	-nus	1c	e-	0A	-nus	1cc	-ge-
.	.	0d	-ge-	.	.	1a	.
1r	.	.	.	1r	.	1b	.
=120	=120	=120	=120	=120	=120	=120	=120
1%3r	.	0.c	-nus	1r	.	0e	-nus
.	.	.	.	1r	.	.	.
.	.	.	.	1e	et	1r	.
=121	=121	=121	=121	=121	=121	=121	=121
1F	et	1%3r	.	1f	pau-	1r	.
1G	pau-	.	.	1d	.	1r	.
1G	-per	.	.	1e	-per	1b	et
=122	=122	=122	=122	=122	=122	=122	=122
0F	sum,	1c	et	0A	sum,	1cc	pau-
.	.	1d	pau-	.	.	1a	.
1r	.	1d	-per	1r	.	1b	-per
=123	=123	=123	=123	=123	=123	=123	=123
1%3r	.	0c	sum,	1r	.	0e	sum,
.	.	.	.	1r	.	.	.
.	.	1G	et	1B	et	1r	.
=124	=124	=124	=124	=124	=124	=124	=124
1C	et	1A	pau-	1c	pau-	1e	et
1D	pau-	1F	.	1A	.	1f	pau-
1D	-per	1F	-per	1B	-per	1d	-per
=125	=125	=125	=125	=125	=125	=125	=125
*M2/1	*	*M2/1	*	*M2/1	*	*M2/1	*
*met(C|)	*	*met(C|)	*	*met(C|)	*	*met(C|)	*
1C	sum;	0G	sum;	1E	sum;	1e	sum;
[1C	De-	.	.	[1e	De-	[1g	De-
=126	=126	=126	=126	=126	=126	=126	=126
1C]	.	1G	De-	1e]	.	1g]	.
1C	-us,	[1c	-us,	1e	-us,	1g	-us,
=127	=127	=127	=127	=127	=127	=127	=127
0F	ad-	1c]	.	1f	ad-	1a	ad-
.	.	1A	ad-	2a	-iu-	2cc	-iu-
.	.	.	.	[2a	-va	2cc	-va
=128	=128	=128	=128	=128	=128	=128	=128
1D	-iu-	2A	-iu-	4a]	.	2dd	me.
.	.	.	.	4g	.	.	.
.	.	1A	-va	4f	.	1ff	.
.	.	.	.	4e	.	.	.
1D	-va	.	.	1f	.	.	.
.	.	4G	.	.	.	4ee	.
.	.	4F	.	.	.	4dd	.
=129	=129	=129	=129	=129	=129	=129	=129
0C	me.	[0c	me.	1.g	me.	2.ee	.
.	.	.	.	.	.	4dd	.
.	.	.	.	.	.	4cc	.
.	.	.	.	.	.	4b	.
.	.	.	.	4f	.	[2cc	.
.	.	.	.	4e	.	.	.
=130	=130	=130	=130	=130	=130	=130	=130
1r	.	0c]	.	[0e	.	2cc]	.
.	.	.	.	.	.	4b	.
.	.	.	.	.	.	4a	.
1C	Ad-	.	.	.	.	[1g	.
=131	=131	=131	=131	=131	=131	=131	=131
1E	-iu-	2r	.	1e]	.	1g]	.
.	.	2G	Ad-	.	.	.	.
1D	-tor	1B	-iu-	1r	.	1r	.
=132	=132	=132	=132	=132	=132	=132	=132
1F	me-	1A	-tor	1c	Ad-	1r	.
1C	-us	1c	me-	1e	-iu-	1g	Ad-
=133	=133	=133	=133	=133	=133	=133	=133
0r	.	1G	-us	1d	-tor	1b	-iu-
.	.	1r	.	1f	me-	1a	-tor
=134	=134	=134	=134	=134	=134	=134	=134
2r	.	1r	.	1c	-us	1cc	me-
2C	et	.	.	.	.	.	.
2E	li-	2r	.	1r	.	1g	-us
2E	-be-	2G	et	.	.	.	.
=135	=135	=135	=135	=135	=135	=135	=135
2D	-ra-	2B	li-	0r	.	0r	.
2D	-tor	2B	-be-	.	.	.	.
2D	me-	2A	-ra-	.	.	.	.
2D	-us	2A	-tor	.	.	.	.
=136	=136	=136	=136	=136	=136	=136	=136
1F	es	2A	me-	2r	.	1r	.
.	.	2A	-us	2c	et	.	.
1C	tu;	1c	es	2e	li-	2r	.
.	.	.	.	2e	-be-	2g	et
=137	=137	=137	=137	=137	=137	=137	=137
0r	.	1G	tu;	2d	-ra-	2b	li-
.	.	.	.	2d	-tor	2b	-be-
.	.	1r	.	2d	me-	2a	-ra-
.	.	.	.	2d	-us	2a	-tor
=138	=138	=138	=138	=138	=138	=138	=138
2r	.	1r	.	1f	es	2a	me-
2D	Do-	.	.	.	.	2a	-us
2E	-mi-	2r	.	1c	tu;	1cc	es
2F	-ne,	2A	Do-	.	.	.	.
=139	=139	=139	=139	=139	=139	=139	=139
2G	ne	2B	-mi-	1r	.	2g	tu;
2E	mo-	2c	-ne,	.	.	2gg	Do-
1D	-re-	2d	ne	2r	.	2ff	-mi-
.	.	2B	mo-	2d	Do-	2dd	-ne,
=140	=140	=140	=140	=140	=140	=140	=140
2C	-ris,	1A	-re-	2e	-mi-	2r	.
2D	.	.	.	2f	-ne,	2dd	ne
2E	.	[1G	-ris,	2g	ne	2b	mo-
2C	.	.	.	2e	mo-	[2cc	-re-
=141	=141	=141	=141	=141	=141	=141	=141
2r	.	1G]	.	1d	-re-	2cc]	.
2G	Do-	.	.	.	.	2b	.
2A	-mi-	2r	.	2c	-ris,	2cc	-ris,
2B	-ne,	2d	Do-	2r	.	2b	.
=142	=142	=142	=142	=142	=142	=142	=142
2c	ne	2e	-mi-	2r	.	2g	.
2A	mo-	2f	-ne,	2c	Do-	2a	.
1G	-re-	2g	ne	2d	-mi-	2b	.
.	.	2e	mo-	2e	-ne,	2g	Do-
=143	=143	=143	=143	=143	=143	=143	=143
2F	-ris,	1d	-re-	1f	ne	2a	-mi-
2D	Do-	.	.	.	.	2b	-ne,
2E	-mi-	1c	-ris,	2g	mo-	2cc	ne
2F	-ne,	.	.	2f	-re-	2a	mo-
=144	=144	=144	=144	=144	=144	=144	=144
2G	ne	2r	.	2d	-ris,	1g	-re-
2E	mo-	2G	Do-	2e	.	.	.
1D	-re-	2A	-mi-	2f	.	2f	.
.	.	2B	-ne,	2F	.	2d	.
=145	=145	=145	=145	=145	=145	=145	=145
0C	-ris,	2c	ne	2G	.	2e	.
.	.	2A	mo-	1.c	.	1f	.
.	.	1G	-re-	.	.	.	.
.	.	.	.	.	.	2e	.
=146	=146	=146	=146	=146	=146	=146	=146
0r	.	0F	-ris,	1A	.	0f	-ris,
.	.	.	.	2r	.	.	.
.	.	.	.	2c	Do-	.	.
=147	=147	=147	=147	=147	=147	=147	=147
0r	.	0r	.	2d	-mi-	2r	.
.	.	.	.	2e	-ne,	2g	Do-
.	.	.	.	2f	ne,	2a	-mi-
.	.	.	.	2d	Do-	2b	-ne,
=148	=148	=148	=148	=148	=148	=148	=148
0r	.	0r	.	2e	-mi-	2cc	ne
.	.	.	.	2f	-ne,	2a	mo-
.	.	.	.	2g	ne	1g	-re-
.	.	.	.	2e	mo-	.	.
=149	=149	=149	=149	=149	=149	=149	=149
2r	.	1r	.	1d	-re-	2f	-ris,
2D	Do-	.	.	.	.	2ff	Do-
2E	-mi-	2r	.	1c	-ris,	2ee	-mi-
2F	-ne,	2A	Do-	.	.	2cc	-ne,
=150	=150	=150	=150	=150	=150	=150	=150
2G	ne	2B	-mi-	2r	.	2r	.
2E	mo-	2c	-ne,	2G	Do-	2gg	Do-
1D	-re-	2d	ne	2A	-mi-	2ff	-mi-
.	.	2B	mo-	2B	-ne,	2dd	-ne,
=151	=151	=151	=151	=151	=151	=151	=151
0C	-ris,	1A	-re-	4c	ne	2ee	ne
.	.	.	.	4d	.	.	.
.	.	.	.	4e	.	2.ee	mo-
.	.	.	.	4f	.	.	.
.	.	[1G	-ris,	2g	.	.	.
.	.	.	.	.	.	4dd	.
.	.	.	.	2e	mo-	[2cc	.
=152	=152	=152	=152	=152	=152	=152	=152
2r	.	1G]	.	1d	-re-	2cc]	.
2G	Do-	.	.	.	.	2b	-re-
2A	-mi-	2r	.	2c	-ris,	2cc	-ris,
2B	-ne,	2d	Do-	2r	.	2b	.
=153	=153	=153	=153	=153	=153	=153	=153
2c	ne	2e	-mi-	2r	.	2g	.
2A	mo-	2f	-ne,	2c	Do-	2a	.
1G	-re-	2g	ne	2d	-mi-	2b	.
.	.	2e	mo-	2e	-ne,	2g	Do-
=154	=154	=154	=154	=154	=154	=154	=154
2F	-ris,	1d	-re-	2f	ne,	2a	-mi-
2D	Do-	.	.	2F	Do-	2b	-ne,
2E	-mi-	1c	-ris,	2G	-mi-	2cc	ne
2F	-ne,	.	.	2A	-ne,	2a	mo-
=155	=155	=155	=155	=155	=155	=155	=155
2G	ne	2r	.	2B	ne	1g	-re-
2E	mo-	2G	Do-	2c	mo-	.	.
1D	-re-	2A	-mi-	1F	-re-	2f	.
.	.	2B	-ne,	.	.	2d	-ris,
=156	=156	=156	=156	=156	=156	=156	=156
0C	-ris,	2c	ne	2G	.	2e	.
.	.	2A	mo-	2c	-ris,	1f	.
.	.	1G	-re-	2r	.	.	.
.	.	.	.	2c	mo-	2e	.
=157	=157	=157	=157	=157	=157	=157	=157
2r	.	[0Fl	-ris.	2.A	-re-	1f	.
2c	mo-	.	.	.	.	.	.
.	.	.	.	4B	.	.	.
2.A	-re-	.	.	2c	-ris,	2r	.
.	.	.	.	2A	mo-	2cc	mo-
4B	.	.	.	.	.	.	.
=158	=158	=158	=158	=158	=158	=158	=158
2c	-ris,	0F_	.	2.F	-re-	2.a	-re-
2A	mo-	.	.	.	.	.	.
.	.	.	.	4G	.	4b	.
2.F	-re-	.	.	1A	-ris,	1cc	-ris,
4G	.	.	.	.	.	.	.
=159	=159	=159	=159	=159	=159	=159	=159
2A	-ris,	0F_	.	2r	.	2r	.
2F	mo-	.	.	2c	mo-	2a	mo-
2.D	-re-	.	.	2.d	-re-	2.f	-re-
4E	.	.	.	4c	.	4g	.
=160	=160	=160	=160	=160	=160	=160	=160
[0Fl	-ris.	0F_	.	2A	-ris,	1.a	.
.	.	.	.	2d	mo-	.	.
.	.	.	.	2c	-re-	.	.
.	.	.	.	2A	.	2f	.
=161	=161	=161	=161	=161	=161	=161	=161
00F]	.	00F]	.	00Al	-ris.	00fl	-ris.
==	==	==	==	==	==	==	==
*-	*-	*-	*-	*-	*-	*-	*-
!!!system-decoration: [*]
!!!RDF**kern: i = editorial accidental
!!!RDF**kern: l = terminal long
!!!PTL: <i> New Senfl Edition: Motets for Four Voices (A-I) </i>
!!!PPR: Hollitzer Verlag
!!!PC#: Denkmäler der Tonkunst in Österreich 163.1
!!!PDT: 2021
!!!PED: Scott Lee Edwards, Stefan Gasch, and Sonja Tröster
!!!YEC: Copyright 2021 Denkmäler der Tonkunst in Österreich
!!!YEM: CC-BY-NC 4.0 (https://creativecommons.org/licenses/by-nc/4.0/legalcode)
!!!EED: Benjamin Ory
!!!EEV: 2024/3/14
!!!verovio: header encoded
!!!header-left: @{PTL}\n@{PED}, eds.\n@{PC#} (@{PDT})&nbsp;\n
!!!header-right:
!!!header-center:
